src/assets/icons/blockchain-wallet.svg

<svg width="16" height="16" viewBox="0 0 16 16" fill="none" xmlns="http://www.w3.org/2000/svg">
<g clip-path="url(#clip0_13264_39668)">
<path fill-rule="evenodd" clip-rule="evenodd" d="M3.70481 1.13249C2.48103 1.25792 1.37229 1.91933 0.697959 2.92622C0.325168 3.48285 0.108595 4.07255 0.0223487 4.76579C0.00451766 4.90917 0 5.78034 0 9.07809C0 12.985 0.00167706 13.2189 0.0306995 13.3615C0.106593 13.7343 0.276997 14.0587 0.533544 14.3189C0.808402 14.5976 1.12068 14.7682 1.49585 14.8446C1.66631 14.8794 1.69044 14.8795 7.22497 14.875L12.7829 14.8704L12.9421 14.8235C13.6441 14.6168 14.1246 14.1057 14.2896 13.3904C14.3147 13.2817 14.3204 13.1412 14.3268 12.4727L14.3345 11.6833L14.6367 11.6743C14.8233 11.6687 14.9718 11.6558 15.0246 11.6405C15.501 11.5025 15.8666 11.122 15.9706 10.6559C15.997 10.5378 16 10.3917 16 9.24921C16 7.80288 16.0027 7.83654 15.8622 7.55831C15.7318 7.3001 15.5231 7.09328 15.2642 6.96549C15.0596 6.86456 14.9123 6.83638 14.589 6.83638H14.3315V6.1537C14.3315 5.40813 14.3177 5.1994 14.2538 4.97868C14.0721 4.35162 13.5687 3.85788 12.9369 3.68711C12.7875 3.64673 12.5201 3.61926 12.2763 3.61926H12.0898V2.67222C12.0898 1.78693 12.0877 1.71901 12.0574 1.63082C11.9788 1.4023 11.8028 1.22921 11.5676 1.14907C11.4916 1.12318 11.1695 1.12109 7.62476 1.12361C5.50172 1.12511 3.73775 1.12912 3.70481 1.13249ZM3.97861 2.62081C3.45747 2.6479 2.95423 2.82854 2.54118 3.1368C2.37021 3.26441 2.11104 3.52869 1.98824 3.70065C1.79034 3.97782 1.62426 4.35855 1.55722 4.68878C1.50682 4.93701 1.49849 5.15653 1.49791 6.25028L1.49733 7.33263H2.52425H3.55116L4.2911 6.71526C4.69804 6.3757 5.06493 6.07781 5.10636 6.05327C5.29054 5.94423 5.26131 5.94652 6.46682 5.94672C7.6563 5.94693 7.63352 5.94529 7.81298 6.04296C7.93073 6.10705 8.06011 6.25002 8.1241 6.38673C8.22017 6.59205 8.20862 6.86062 8.09511 7.06048C8.0408 7.15609 7.91226 7.28641 7.81748 7.34194C7.65989 7.4343 7.65231 7.43491 6.67657 7.43512L5.77237 7.43531L5.00239 8.07645C4.52127 8.47707 4.19924 8.73314 4.144 8.75899C3.97895 8.83626 3.93754 8.83852 2.68579 8.83852H1.49733V9.25734V9.67616L2.75171 9.68087L4.00609 9.68557L4.13353 9.74935C4.23214 9.7987 4.42993 9.95422 5.00829 10.4372L5.75564 11.0612L6.67674 11.067C7.64415 11.073 7.63147 11.072 7.7861 11.153C8.15475 11.3462 8.29558 11.7973 8.10426 12.1723C8.05774 12.2635 7.91013 12.4125 7.80702 12.4722C7.64889 12.5639 7.58775 12.5684 6.47587 12.5687C5.39965 12.569 5.32297 12.5644 5.16509 12.4898C5.11059 12.4641 4.78145 12.2022 4.3067 11.8069L3.53672 11.1658H2.51701H1.49733V12.1038C1.49733 13.182 1.49601 13.17 1.62733 13.2856C1.68287 13.3345 1.73087 13.3596 1.79386 13.3726C1.85578 13.3854 3.48341 13.3895 7.21283 13.3863C12.0707 13.3822 12.5486 13.3794 12.6032 13.3543C12.6824 13.3178 12.7549 13.2436 12.7935 13.1594C12.8223 13.0965 12.8249 13.033 12.8253 12.3858L12.8257 11.6807L11.6834 11.6748C10.453 11.6683 10.5011 11.6717 10.2759 11.5755C9.98574 11.4515 9.72268 11.1927 9.59057 10.9014C9.48023 10.658 9.48021 10.6577 9.48021 9.24921C9.48021 7.80288 9.47748 7.83654 9.618 7.55831C9.74843 7.3001 9.95706 7.09328 10.216 6.96549C10.4766 6.83689 10.4827 6.83638 11.7304 6.83638H12.8271L12.8221 6.102L12.8171 5.36761L12.7657 5.29345C12.732 5.24488 12.6822 5.20301 12.6214 5.1722L12.5286 5.12515L8.27501 5.12489C4.66719 5.12468 4.0058 5.12097 3.91872 5.10042C3.46373 4.99307 3.22269 4.48718 3.42058 4.05494C3.51666 3.84506 3.74566 3.67353 3.97861 3.63698C4.05132 3.62556 5.21725 3.61947 7.34571 3.6194L10.6016 3.61926L10.597 3.11873L10.5925 2.61819L7.33262 2.61707C5.53968 2.61643 4.03037 2.61813 3.97861 2.62081ZM10.9775 9.24912V10.1733H12.7401H14.5027V9.24971V8.32612L12.7401 8.32556L10.9775 8.32497V9.24912ZM5.38449 8.51417C5.09832 8.55267 4.84182 8.77855 4.76646 9.05843C4.73934 9.15917 4.74286 9.37719 4.7732 9.47561C4.83354 9.67128 4.9798 9.83669 5.17647 9.93163L5.30481 9.9936L6.40856 9.99904C7.58641 10.0049 7.62341 10.0028 7.78517 9.92111C7.8893 9.86856 8.05117 9.70953 8.10204 9.60982C8.22046 9.37771 8.21768 9.10403 8.09473 8.88758C8.04175 8.7943 7.90898 8.65866 7.81888 8.6058C7.64822 8.50566 7.67146 8.50751 6.5369 8.50337C5.96278 8.50127 5.44419 8.50613 5.38449 8.51417Z" fill="currentColor"/>
</g>
<defs>
<clipPath id="clip0_13264_39668">
<rect width="16" height="16" fill="white"/>
</clipPath>
</defs>
</svg>

<svg xmlns="http://www.w3.org/2000/svg" width="16" height="16" fill="none">
  <g clip-path="url(#a)">
    <path fill="currentColor" fill-rule="evenodd" d="M3.705 1.132A4.13 4.13 0 0 0 .698 2.926a4.109 4.109 0 0 0-.676 1.84C.005 4.909 0 5.78 0 9.078c0 3.907.002 4.14.03 4.284.077.372.247.697.504.957.274.279.587.45.962.526.17.034.194.034 5.729.03l5.558-.005.16-.046a1.883 1.883 0 0 0 1.347-1.434c.025-.108.03-.249.037-.917l.008-.79.302-.009c.186-.005.335-.018.388-.034.476-.138.842-.518.946-.984.026-.118.029-.264.029-1.407 0-1.446.003-1.412-.138-1.69a1.325 1.325 0 0 0-.598-.594c-.204-.1-.352-.129-.675-.129h-.258v-.682c0-.746-.013-.955-.077-1.175a1.89 1.89 0 0 0-1.317-1.292 2.93 2.93 0 0 0-.66-.068h-.187v-.947c0-.885-.002-.953-.033-1.041a.77.77 0 0 0-.49-.482c-.075-.026-.398-.028-3.942-.025-2.123.001-3.887.005-3.92.008Zm.274 1.489a2.638 2.638 0 0 0-1.438.516c-.17.127-.43.392-.553.564a2.77 2.77 0 0 0-.43.988c-.051.248-.06.468-.06 1.561v1.083H3.55l.74-.618c.407-.34.774-.637.815-.662.185-.109.155-.106 1.36-.106 1.19 0 1.168-.002 1.347.096a.825.825 0 0 1 .311.344.762.762 0 0 1-.029.673.925.925 0 0 1-.278.282c-.157.092-.165.093-1.14.093h-.905l-.77.641c-.48.401-.803.657-.858.683-.165.077-.206.08-1.458.08H1.497v.838l1.255.004 1.254.005.128.063c.098.05.296.205.874.688l.748.624.92.006c.968.006.955.005 1.11.086.369.193.51.644.318 1.02a.964.964 0 0 1-.297.3c-.158.09-.22.095-1.331.096-1.076 0-1.153-.005-1.31-.08-.055-.025-.385-.287-.86-.682l-.77-.641H1.498v.938c0 1.078-.001 1.066.13 1.182a.34.34 0 0 0 .167.087c.062.012 1.69.017 5.419.013 4.858-.004 5.336-.007 5.39-.032a.408.408 0 0 0 .19-.195c.03-.063.032-.126.032-.773v-.705l-1.142-.006c-1.23-.007-1.182-.003-1.407-.1a1.382 1.382 0 0 1-.685-.674c-.11-.243-.11-.243-.11-1.652 0-1.446-.004-1.412.137-1.69.13-.259.34-.466.598-.594.26-.128.267-.129 1.514-.129h1.097l-.005-.734-.005-.734-.051-.075a.387.387 0 0 0-.145-.12l-.092-.048H8.275c-3.608 0-4.27-.004-4.356-.025a.75.75 0 0 1-.498-1.045.775.775 0 0 1 .558-.418c.072-.011 1.238-.018 3.367-.018h3.256l-.005-.5-.005-.5-3.26-.002c-1.792 0-3.302.001-3.353.004Zm6.998 6.628v.924h3.526V8.326H12.74l-1.763-.001v.924Zm-5.593-.735a.765.765 0 0 0-.618.544c-.027.101-.023.32.007.418.06.195.207.36.403.456l.129.062 1.104.005c1.177.006 1.214.004 1.376-.078a.94.94 0 0 0 .317-.311.765.765 0 0 0-.007-.722.956.956 0 0 0-.276-.282c-.17-.1-.148-.098-1.282-.103a26.281 26.281 0 0 0-1.153.011Z" clip-rule="evenodd"/>
  </g>
  <defs>
    <clipPath id="a">
      <path fill="#fff" d="M0 0h16v16H0z"/>
    </clipPath>
  </defs>
</svg>
